svgs/thin/podium.svg

<svg xmlns="http://www.w3.org/2000/svg" viewBox="0 0 448 512"><!--! Font Awesome Pro 6.0.0-alpha3 by @fontawesome - https://fontawesome.com License - https://fontawesome.com/license (Commercial License) --><path d="M440 152H104V112c0-30.88 25.12-56 56-56h32.81C196.6 78.68 216.2 96 240 96h64C330.5 96 352 74.51 352 48S330.5 0 304 0h-64C216.2 0 196.6 17.32 192.8 40H160c-39.69 0-72 32.3-72 72v40h-80C3.594 152 0 155.6 0 160s3.594 8 8 8h432C444.4 168 448 164.4 448 160S444.4 152 440 152zM240 16h64c17.64 0 32 14.36 32 32s-14.36 32-32 32h-64c-17.64 0-32-14.36-32-32S222.4 16 240 16zM408.9 216c-4.844-.6406-8.344 2.672-8.844 7.047l-28.75 251.6C369.9 486.9 359.7 496 347.4 496H100.6c-12.22 0-22.47-9.141-23.88-21.27L47.94 223.1c-.5-4.375-4.188-7.656-8.844-7.047c-4.406 .5-7.531 4.469-7.031 8.859l28.75 251.6C63.09 496.8 80.19 512 100.6 512h246.9c20.38 0 37.47-15.23 39.75-35.45l28.75-251.6C416.4 220.5 413.3 216.5 408.9 216z"/></svg>

<svg xmlns="http://www.w3.org/2000/svg" viewBox="0 0 448 512"><!-- Font Awesome Pro 6.0.0-alpha2 by @fontawesome - https://fontawesome.com License - https://fontawesome.com/license (Commercial License) --><path d="M440 152H104V112C104 81.125 129.125 56 160 56H192.807C196.631 78.68 216.23 96 240 96H304C330.51 96 352 74.51 352 48S330.51 0 304 0H240C216.23 0 196.631 17.32 192.807 40H160C120.312 40 88 72.297 88 112V152H8C3.594 152 0 155.578 0 160S3.594 168 8 168H440C444.406 168 448 164.422 448 160S444.406 152 440 152ZM240 16H304C321.645 16 336 30.355 336 48S321.645 80 304 80H240C222.355 80 208 65.645 208 48S222.355 16 240 16ZM408.906 216.047C404.062 215.406 400.562 218.719 400.062 223.094L371.312 474.734C369.906 486.859 359.656 496 347.438 496H100.562C88.344 496 78.094 486.859 76.687 474.734L47.938 223.094C47.438 218.719 43.75 215.438 39.094 216.047C34.688 216.547 31.562 220.516 32.062 224.906L60.812 476.547C63.094 496.766 80.188 512 100.562 512H347.438C367.813 512 384.906 496.766 387.188 476.547L415.938 224.906C416.438 220.516 413.312 216.547 408.906 216.047Z"/></svg>
